project_02/img/icondev/social-media.svg

<svg xmlns="http://www.w3.org/2000/svg" width="38" height="39" viewBox="0 0 38 39">
    <g fill="none" fill-rule="evenodd" stroke="#33CAC0" stroke-width="1.4">
        <path d="M17.348 19.826h0c1.602 0 1.875 1.652 4.13 1.652h7.435c1.033 0 1.446-.981 1.652-1.652.207-.67.826-5.783.826-5.783.256-1.333-.939-2.478-2.478-2.478h-1.652"/>
        <path d="M20.652 16.522c2.374-.78 4.13-1.93 4.13-4.027 0 0 .684-1.434.827-1.876.098-.304.319-.918.319-2.347 0-1.446-.282-1.981-.983-2.779-.71-.805-1.815-.488-1.815.29v.826c0 1.738-1.28 2.203-2.596 3.501 0 0-1.686 1.455-2.36 1.455h-.826M13.217 21.478L17.348 21.478 17.348 9.913 13.217 9.913z"/>
        <path d="M9.913 26.435h15.696l5.198 6.024c.52.52 1.41.152 1.41-.584v-5.44h2.479c1.368 0 2.478-1.11 2.478-2.478V3.304c0-1.368-1.11-2.478-2.478-2.478H9.913c-1.369 0-2.478 1.11-2.478 2.478v20.653c0 1.368 1.11 2.478 2.478 2.478z"/>
        <path d="M5.783 8.26H3.304C1.936 8.26.826 9.37.826 10.74v18.173c0 1.369 1.11 2.478 2.478 2.478h1.653v5.44c0 .737.89 1.105 1.41.585l5.198-6.025h8.261c1.369 0 2.478-1.11 2.478-2.478v-.826"/>
    </g>
</svg>

<svg width="38" height="39" viewBox="0 0 38 39" fill="none" xmlns="http://www.w3.org/2000/svg">
<path d="M17.348 19.826C18.95 19.826 19.223 21.478 21.478 21.478H28.913C29.946 21.478 30.359 20.497 30.565 19.826C30.772 19.156 31.391 14.043 31.391 14.043C31.647 12.71 30.452 11.565 28.913 11.565H27.261" stroke="#2998FF" stroke-width="1.4"/>
<path d="M20.652 16.522C23.026 15.742 24.782 14.592 24.782 12.495C24.782 12.495 25.466 11.061 25.609 10.619C25.707 10.315 25.928 9.701 25.928 8.272C25.928 6.826 25.646 6.291 24.945 5.493C24.235 4.688 23.13 5.005 23.13 5.783V6.609C23.13 8.347 21.85 8.812 20.534 10.11C20.534 10.11 18.848 11.565 18.174 11.565H17.348M13.217 21.478H17.348V9.913H13.217V21.478Z" stroke="#2998FF" stroke-width="1.4"/>
<path fill-rule="evenodd" clip-rule="evenodd" d="M9.913 26.435H25.609L30.807 32.459C31.327 32.979 32.217 32.611 32.217 31.875V26.435H34.696C36.064 26.435 37.174 25.325 37.174 23.957V3.304C37.174 1.936 36.064 0.826 34.696 0.826H9.913C8.544 0.826 7.435 1.936 7.435 3.304V23.957C7.435 25.325 8.545 26.435 9.913 26.435Z" stroke="#2998FF" stroke-width="1.4"/>
<path d="M5.78299 8.26H3.30399C1.93599 8.26 0.825989 9.37 0.825989 10.74V28.913C0.825989 30.282 1.93599 31.391 3.30399 31.391H4.95699V36.831C4.95699 37.568 5.84699 37.936 6.36699 37.416L11.565 31.391H19.826C21.195 31.391 22.304 30.281 22.304 28.913V28.087" stroke="#2998FF" stroke-width="1.4"/>
</svg>
